X:1
T:Occhi lucenti - Marenzio
T:#
%%score [ 1 2 { 3 | 4 } 5 ]
L:1/8
Q:1/4=120
M:2/2
K:F
V:1 treble nm="Soprano" snm="S"
V:2 treble nm="Alto" snm="A"
V:3 treble-8 nm="Tenor I" snm="T"
V:4 treble-8 
V:5 bass nm="Bass" snm="B"
V:1
"^Occhi lucenti e belli""^Veronica Gambara\n(1485-1550)" d8 | d8 | d8 | d8 | d8 | %5
w: Oc-|chi|lu-|cen-|ti~e|
"^Luca Marenzio\n(1556 -1599)" d8 |[M:2/2] d8 | z8 | z8 | z8 | z8 | d8 | d8 | d8 | d8 | d8 | d8 | %17
w: bel-|li|||||Na-|scan|da|voi|sì|no-|
 d8 | d8 | d8 | d8 | d16 || d8 | d8 | d8 | d8 | g8 | g8 | g8 | g8 | f8 | f8 | f8 | z8 | z8 | z8 | %36
w: ve|for-|me,~e|tan-|te?|Lie-|ti,|va-|ghi,|su-|per-|bi,~u-|mi-|li~al-|tie-|ri||||
 z8 | z8 | z8 | z8 | z8 | z8 | z8 | d8 | d8 | d8 | _e8 | _e8 | d8 | d8 | c8 | c8 | c8 | c8 | A8 | %55
w: |||||||E|tan-|ti~ef-|fet-|ti|dol-|ci,~a-|cer-|bi~e|fie-|ri|Nel|
 A8 | A8 | A8 | z8 | z8 | z8 | z8 | z8 | z8 | z8 | d8 | d8 | d8 | d8 | c8 | c8 | c8 | d8 | d8 | %74
w: cor|ar-|so||||||||Hor,|poi|che|voi|mia|vi-|ta~e|mor-|te|
 d8 | d8 | z8 | z8 | d8 | d8 | g8 | g8 | z8 | d8 | d8 | d8 | d8 | d8 | d8 | d8 | d8[Q:1/4=118] | %91
w: se-|te.|||Oc-|chi,|oc-|chi||Sia-|te|sem-|pre|se-|re-|ni,~al-|leg-|
[Q:1/4=117] d8[Q:1/4=115][Q:1/4=114][Q:1/4=113][Q:1/4=111][Q:1/4=110][Q:1/4=108] | %92
w: ri~e|
[Q:1/4=107] d8[Q:1/4=104][Q:1/4=101] |[Q:1/4=100] =B16 |] %94
w: chia-|ri.|
V:2
 z2 G2 ^F2 G2 | D2 (G,A,B,CDE | ^F2) (G4 F2) | G4 z4 | z2 G2 F2 B2 | A2 G2 A4 |[M:2/2] =B4 z2 B2 | %7
w: Oc- chi lu-|cen- ti~e * * * * *|* bel\- *|li,|oc- chi lu-|cen- ti~e bel-|li Com'|
 c4 A4 | B4 c2 B2- | B2 A2 A2 G2 | A8 | A4 z4 | D2 DE F4 | F2 FG A2 A2 | B2 A2 G4 | F2 A2 B2 A2 | %16
w: es- ser|può ch'in un|* me- de- smo~i-|stan-|te|Na- scan da voi,|na- scan da voi sì|no- ve for-|me, sì no- ve|
 B4 A4 | z4 B4- | B4 (A4- | A2 G2 G4- | G4 ^F4) | G16 || z8 | z8 | z4 A4 | F4 D4 | E8 | z4 G4 | %28
w: for- me,|e|* tan\-|||te?|||Lie-|ti, va-|ghi,|su-|
 (EDEF G4-) | G4 G4 | A4 F2 (B2- | B2 AG A4) | B4 z2 B2- | B2 A2 G4 | E2 A2 A4- | A2 A2 z2 A2- | %36
w: per\- * * * *|* bi~u-|mi- li,~al- tie\-||ri Vi|* mo- stra-|te~in un pun\-|* to, on\-|
 AA A2 B4 | c4 c4 | c4 A4 | ^G8 | ^G8 | A8- | A8 | A8 | z4 G4 | G4 G4 | G8- | G4 G4 | ^F8 | ^F8 | %50
w: * de di spe-|me E|di ti-|mor|m'em-|pie\-||te,|E|tan- ti~ef-|fet\-|* ti|dol-|ci,~a-|
 G4 A4 | (E4 F4- | F2 ED E4) | F4 A4- | A2 E2 F4 | C4 F4- | F2 C2 D4 | A,4 A4- | A4 A4 | z4 z2 GA | %60
w: cer- bi~e|fie\- *||ri Nel|* cor ar-|so, nel|* cor ar-|so per|* voi|Ad ogn'|
 B2 FG A4 | E4 z2 DE | F2 CD E4 | D4 z4 | z2 GA B4 | A2 G2 A4 | G4 z2 G2 | ^F4 F2 G2- | G2 A2 G4 | %69
w: hor che vo- le-|te, ad ogn'|hor che vo- le-|te,|ad ogn' ~hor|che vo- le-|te. Hor,|poi che voi|* mia vi-|
 G8 | z4 C4 | E8 | F4 (A4- | A4 G4- | G2 ^FE F4) | G2 G3 G G2 | A2 B3 B A2 | G2 G2 ^F4- | F4 ^F4 | %79
w: ta|e|mor-|te se\-|||te. Oc- chi fe-|li- ci,~oc- chi be-|a- ti~e ca\-|* ri|
 G6 G2 | G8 | G4 G4 | A8 | B8 | z8 | z8 | z4 z2 d2 | (dcBA B2 AG) | ^F2 G4 F2 | G4 z4 | z4 z2 d2 | %91
w: Sia- te|sem-|pre se-|re-|ni,|||al-|le\- * * * * * *|* gri~e chia-|ri,|al-|
 (dcBA B2 AG | ^F2) G4 F2 | G16 |] %94
w: le\- * * * * * *|* gri~e chia-|ri.|
V:3
 z8 | z8 | z8 | z2 g2 ^f2 g2 | d2 (GA Bcde | ^f2) (g4 f2) |[M:2/2][K:treble-8] g4 z2 g2 | g4 f4 | %8
w: |||Oc- chi lu-|cen- ti~e * * * * *|* bel\- *|li Com'|es- ser|
 f4 f2 f2- | f2 f2 e2 d2- | d2 (^c=B c4) | d4 B2 Bc | d4 d2 de | f4 z2 d2 | d2 A2 B4 | %15
w: può ch'in un|* me- de- smo~i\-|* stan\- * *|te Na- scan da|voi, na- scan da|voi sì|no- ve for-|
 A2 d2 g2 ^f2 | g4 d4 | (d6 e2 | f6 e2 | d8- | d8) | =B16 || z4 d4 | B4 (GABc | d3 e f3 g | %25
w: me, sì no- ve|for- me,~e|tan\- *||||te?|Lie-|ti, va\- * * *||
 a4) g4 | z2 g2 e2 (c2- | c2 =BA B4) | c4 z2 e2 | d4 e4 | f6 d2 | c8 | B4 z2 f2- | f2 f2 d4 | %34
w: * ghi,|lie- ti, va\-||ghi, su-|per- bi,~u-|mi- li,~al-|tie-|ri Vi|* mo- stra-|
 c2 f2 e4- | e2 e2 z2 ^f2- | f^f f2 g4 | a4 g4 | g4 f4 | e8 | e8 | (f8 | e8) | ^f8 | g8 | d4 B4 | %46
w: te~in un pun\-|* to, on\-|* de di spe-|me E|di ti-|mor|m'em-|pie\-||te,|E|tan- ti~ef-|
 B8- | B4 c4 | A8 | A4 B4- | B4 A4 | G4 c4 | z8 | z4 f4- | f2 c2 d4 | A4 a4- | a2 e2 f4 | c4 d4- | %58
w: fet\-|* ti|dol-|ci,~a- cer\-|* bi~e|fie- ri||Nel|* cor ar-|so, nel|* cor ar-|so per|
 d4 c4 | f2 ff e4 | d4 z2 AB | c2 GA B4 | A4 z2 ef | g2 de f4 | e4 z2 Bc | d8 | G4 z2 B2 | %67
w: * voi|ven- go- no~in- sie-|me Ad ogn'|hor che vo- le-|te, ad ogn'|hor che vo- le-|te, che vo-|le-|te. Hor,|
 A4 A2 B2- | B2 A2 =B4 | c8- | c8 | z8 | F8 | A4 B4 | A8 | G2 B3 B B2 | c2 d3 d c2 | B2 G2 A4- | %78
w: poi che voi|* mia vi-|ta|||e|mor- te|se-|te. Oc- chi fe-|li- ci,~oc- chi be-|a- ti~e ca\-|
 A4 A4 | =B6 B2 | =B8 | c4 c4 | c8 | B8 | z8 | z4 z2 d2 | (dcBA B2 AG | F4) f4 | d4 d4 | %89
w: * ri|Sia- te|sem-|pre se-|re-|ni,||al-|le\- * * * * * *|* gri~e|chia- ri,|
 z2 d2 (fedc | d2 cB A2) B2 | F4 F2 f2 | d8 | d16 |] %94
w: al- le\- * * *|* * * * gri~e|chia- ri, e|chia-|ri.|
V:4
 z8 | z8 | z8 | z4 z2 g2 | ^f2 g2 d2 G2 | d8 |[M:2/2][K:treble-8] G4 z2 d2 | e4 c4 | d4 c2 d2- | %9
w: |||Oc-|chi lu- cen- ti~e|bel-|li Com'|es- ser|può ch'in un|
 d2 d2 ^c2 d2 | e8 | f4 z4 | B2 Bc d4 | d2 de ^f2 f2 | g2 d2 d4 | d4 z4 | z4 z2 d2 | B2 A2 (B3 c | %18
w: * me- de- smo~i-|stan-|te|Na- scan da voi,|Na- scan da voi sì|no- ve for-|me,|sì|no- ve for\- *|
 d6) A2 | (B8 | A8) | G16 || z8 | d4 B4 | (GABc d4) | A2 d2 =B4 | (cdef g3 f/e/ | d8) | c8 | %29
w: * me~e|tan\-||te?||Lie- ti,|va\- * * * *|ghi, lie- ti,|va\- * * * * * *||ghi,|
 z2 g4 c2- | c2 c2 d2 f2 | f8 | d4 z2 d2- | d2 c2 B4 | A2 d2 ^c4- | c2 ^c2 z2 d2- | dd d2 d4 | %37
w: su- per\-|* bi,~u- mi- li,~al-|tie-|ri Vi|* mo- stra-|te~in un pun\-|* to, on\-|* de di spe-|
 f4 e4 | e4 d4 | =B8- | B4 c4- | c4 (d4- | d4 ^c4) | d8 | z4 B4 | B4 d4 | G8- | G4 G4 | d8 | d8 | %50
w: me E|di ti-|mor|* m'em\-|* pie\-||te,|E|tan- ti~ef-|fet\-|* ti|dol-|ci,~a-|
 G4 c4- | (c2 B2 A4) | G8 | F8 | z4 f4- | f2 c2 d4 | A4 a4- | a2 e2 f4- | f2 f2 e4 | d4 z2 ef | %60
w: cer- bi~e||fie-|ri|Nel|* cor ar-|so, nel|* cor ar\-|* so per|voi Ad ogn'|
 g2 de f4 | c4 z2 Bc | d2 AB c4 | G4 z4 | z2 ef g2 de | (^f2 g4 f2) | g4 z2 d2 | d4 d2 d2- | %68
w: hor che vo- le-|te, ad ogn'|hor che vo- le-|te,|ad ogn' hor che vo-|le\- * *|te. Hor,|poi che voi|
 d2 d2 d4 | e8 | g4 a4 | g8 | a4 d4 | ^f4 g4 | a8 | d2 d3 d d2 | f2 f3 f f2 | d2 c2 d4- | d4 d4 | %79
w: * mia vi-|ta~e|mor- te|sie-|te, e|mor- te|se-|te. Oc- chi fe-|li- ci,~oc- chi be-|a- ti~e ca\-|* ri|
 d6 d2 | d8 | e4 e4 | f8 | f4 z2 f2 | (fedc d2 cB | A2) G2 A4 | B4 z2 d2 | (fedc d2 cB) | %88
w: Sia- te|sem-|pre se-|re-|ni, al-|le\- * * * * * *|* gri~e chia-|ri, al-|le\- * * * * * *|
 A2 G2 A4 | (GABc d4) | z4 z2 d2 | (fedc d2 cB | A2) G2 A4 | G16 |] %94
w: * gri~e chia-|ri, * * * *|al-|le\- * * * * * *|* gri~e chia-|ri.|
V:5
 z8 | z8 | z8 | z8 | z8 | z8 |[M:2/2] z4 G,4 | C4 F,4 | B,4 A,2 B,2- | B,2 D2 A,2 B,2 | A,8 | %11
w: ||||||Com'|es- ser|può ch'in un|* me- de- smo~i-|stan-|
 D,4 G,2 G,A, | B,4 B,2 B,C | D4 D,4 | G,2 ^F,2 G,4 | D,4 z4 | z4 z2 D,2 | G,2 ^F,2 G,4 | D,8 | %19
w: te Na- scan da|voi, na- scan da|voi sì|no- ve for-|me,|sì|no- ve for-|me,~e|
 (B,,6 C,2 | D,8) | G,16 || D4 B,4 | (G,A,B,C D4- | D4) D,4- | D,4 G,4 | E,4 (C,D,E,F, | G,8) | %28
w: tan\- *||te?|Lie- ti,|va\- * * * *|* ghi,|* lie-|ti, va\- * * *||
 C,4 C4 | =B,4 C4 | A,4 B,4 | F,8 | B,,4 B,4- | B,2 F,2 G,4 | A,2 D,2 A,4- | A,2 A,2 z2 D,2- | %36
w: ghi, su-|per- bi,~u-|mi- li,~al-|tie-|ri Vi|* mo- stra-|te~in un pun\-|* to, on\-|
 D,D, D,2 G,4 | F,4 C,4 | C,4 D,4 | E,8 | E,8 | A,8- | A,8 | D,8 | G,8 | G,4 G,4 | _E,8- | %47
w: * de di spe-|me E|di ti-|mor|m'em-|pie\-||te,|E|tan- ti~ef-|fet\-|
 E,4 C,4 | D,8 | D,8 | E,4 F,4 | C,8- | C,8 | F,8 | z8 | z8 | z8 | z4 D,4 | A,8 | D2 DD C4 | %60
w: * ti|dol-|ci,~a-|cer- bi~e|fie\-||ri||||Per|voi|ven- go- no~in- sie-|
 B,4 z2 F,G, | A,2 E,F, G,4 | F,4 z4 | z2 B,C D2 A,B, | C4 G,4 | z8 | G,8 | D,4 D,2 G,2- | %68
w: me Ad ogn'|hor che vo- le-|te,|ad ogn' hor che vo-|le- te.||Hor,|poi che voi|
 G,2 ^F,2 G,4 | C,8 | E,4 F,4 | E,8 | D,8- | D,8 | D,8 | z2 G,3 G, G,2 | F,2 B,3 B, F,2 | %77
w: * mia vi-|ta~e|mor- te|se-|te.|||Oc- chi fe-|li- ci,~oc- chi be-|
 G,2 _E,2 D,4- | D,4 D,4 | G,6 G,2 | G,8 | C,4 C,4 | F,8 | B,,4 z2 D2 | (DCB,A, B,2 A,G, | %85
w: a- ti~e ca\-|* ri|Sia- te|sem-|pre se-|re-|ni, al-|le\- * * * * * *|
 ^F,2) G,4 F,2 | G,4 G,4 | D,8 | D,8 | z2 D2 (DCB,A, | B,2 A,G, F,2) G,2 | D,8- | D,8 | G,16 |] %94
w: * gri~e chia-|ri, e|chia-|ri,|al- le\- * * *|* * * * gri~e|chia\-||ri.|

